packages/kaspersky-hexa-ui-icons/src/iconsSVGs/16/Hmi.svg

<svg width="16" height="16" viewBox="0 0 16 16" fill="none" xmlns="http://www.w3.org/2000/svg">
<path fill-rule="evenodd" clip-rule="evenodd" d="M5.85787 9.40708C4.30633 8.73369 3.22022 7.18827 3.22022 5.38774C3.22022 2.96891 5.18107 1.00806 7.5999 1.00806C10.0187 1.00806 11.9796 2.96891 11.9796 5.38774C11.9796 6.43556 11.6113 7.39736 10.9981 8.15071L11.3389 8.28111C12.5407 8.74108 13.2384 9.998 12.9931 11.2613L12.3707 14.4659C12.3114 14.7714 12.0438 14.992 11.7326 14.992H6.50787C6.33455 14.992 6.1684 14.9228 6.04635 14.7997L2.86377 11.5906C2.73661 11.4624 2.66852 11.2871 2.67583 11.1066C2.68313 10.9262 2.76517 10.7569 2.90228 10.6394L3.64487 10.0029C3.78851 9.87978 3.97866 9.82535 4.16568 9.85381L5.85787 10.1113V9.40708ZM4.52022 5.38774C4.52022 3.68688 5.89904 2.30806 7.5999 2.30806C9.30076 2.30806 10.6796 3.68688 10.6796 5.38774C10.6796 6.28161 10.2992 7.08665 9.68968 7.64994L9.30611 7.50314V4.96667C9.30611 4.01447 8.5342 3.24255 7.58199 3.24255C6.62979 3.24255 5.85787 4.01447 5.85787 4.96667V7.92793C5.04971 7.37254 4.52022 6.44147 4.52022 5.38774ZM7.15787 4.96667C7.15787 4.73244 7.34776 4.54255 7.58199 4.54255C7.81623 4.54255 8.00611 4.73244 8.00611 4.96667V7.95035C8.00611 8.2197 8.17223 8.46114 8.42378 8.55741L10.8742 9.49523C11.4865 9.72956 11.8419 10.3699 11.7169 11.0134L11.1967 13.692H6.77869L4.29596 11.1886L6.41008 11.5103C6.59739 11.5388 6.78781 11.4842 6.93151 11.3607C7.07521 11.2372 7.15787 11.0572 7.15787 10.8677V4.96667Z" fill="black"/>
</svg>

<svg xmlns="http://www.w3.org/2000/svg" width="16" height="16" fill="none" viewBox="0 0 16 16"><path fill="#000" fill-rule="evenodd" d="M5.8579 9.407c-1.5516-.6733-2.6377-2.2187-2.6377-4.0193 0-2.4188 1.9609-4.3796 4.3797-4.3796s4.3797 1.9608 4.3797 4.3796a4.362 4.362 0 0 1-.9815 2.763l.3408.1304c1.2018.46 1.8995 1.7169 1.6542 2.9802l-.6224 3.2046a.65.65 0 0 1-.6381.5261H6.5079a.65.65 0 0 1-.4615-.1923l-3.1826-3.2091a.65.65 0 0 1 .0385-.9512l.7426-.6365a.65.65 0 0 1 .5208-.149l1.6922.2574zM4.5202 5.3878c0-1.7008 1.3788-3.0796 3.0797-3.0796s3.0797 1.3788 3.0797 3.0796c0 .894-.3804 1.699-.99 2.2622l-.3835-.1468V4.9667c0-.9522-.7719-1.7242-1.7241-1.7242s-1.7241.772-1.7241 1.7242v2.9612c-.8082-.5554-1.3377-1.4864-1.3377-2.5402m2.6377-.421a.4241.4241 0 0 1 .8482 0v2.9837a.65.65 0 0 0 .4177.607l2.4504.9378a1.35 1.35 0 0 1 .8427 1.5182l-.5202 2.6786h-4.418L4.296 11.1886l2.114.3217a.65.65 0 0 0 .7479-.6426z"/></svg>
